X: 1940
T: Arrane Sooree
R: jig
M: 6/8
K: Edorian
B2A|GAG F2E|A2F D2E|F2G E2D|E3 E2F|
G2A B2c|d2c B2A|B2B d2c|B3 E2F|
G2A B2c|d2c Bcd|e2e d2c|B3 B2A|
GAG F2E|A2F D2E|F2G E2D|E3||

